X:1
T:I'll Tell My Ma
M:2/4
L:1/8
K:D
 D| A,D F3/2 G/2| GG F3/2 G/2| FE E3/2 F/2| ED D3/2 F/2| A,D F3/2 G/2|\
 GG F3/2 G/2| FE E3/2 F/2| ED D2| AA AF| GG GE| F F/2F/2 FD| EC B,/2 A,3/2|\
 AA AF| GG G2| F D/2D/2 EC| DD D-|
